X: 13195
T: First Trout, The
R: jig
M: 6/8
K: Emixolydian
B,|:EFE DB,A,|B,E^D E2 E|F/=G/AB cdd|BAF CDD|
dAF dAF|=GFE DB,A,|G,A,B, DB,A,|1 B,E^D E2 B,:|2 B,E^D EGB||
|:eBG GAA|EFE DB,A,|eBc cdd|dAF dAF|
eBG GAA|EFE DB,A,|G,A,B, DB,A,|1 B,E^D EGB:|2 B,E^D EG,A,||
|:B,2 E B,EE|B,EB, DCD|B,EE B,EE|F/=G/AB cdd|
dAF dAF|=GFE DB,A,|G,A,B, DB,A,|1 B,E^D EG,A,:|2 B,E^D E2B,||

